assets/repeat.svg

<?xml version="1.0" encoding="UTF-8" standalone="no"?>
<svg
   xmlns:dc="http://purl.org/dc/elements/1.1/"
   xmlns:cc="http://creativecommons.org/ns#"
   xmlns:rdf="http://www.w3.org/1999/02/22-rdf-syntax-ns#"
   xmlns:svg="http://www.w3.org/2000/svg"
   xmlns="http://www.w3.org/2000/svg"
   viewBox="0 0 74.666664 77.333984"
   height="77.333984"
   width="74.666664"
   xml:space="preserve"
   id="svg2"
   version="1.1"><metadata
     id="metadata8"><rdf:RDF><cc:Work
         rdf:about=""><dc:format>image/svg+xml</dc:format><dc:type
           rdf:resource="http://purl.org/dc/dcmitype/StillImage" /></cc:Work></rdf:RDF></metadata><defs
     id="defs6" /><g
     transform="matrix(1.3333333,0,0,-1.3333333,0,77.333984)"
     id="g10"><g
       transform="translate(4,-4.271484)"
       id="g12"><path
         id="path14"
         style="fill:#245080;fill-opacity:1;fill-rule:nonzero;stroke:none"
         d="m 51.999996,32.345558 c 0,2.209137 -1.790859,4 -4,4 -2.209137,0 -4,-1.790863 -4,-4 z m -7.692306,12.962963 0.567398,-3.959552 c 1.7598,0.252174 3.141987,1.635559 3.392643,3.395572 z m -13.490473,2.107701 c -2.186802,-0.313363 -3.705523,-2.340149 -3.392159,-4.526947 0.313366,-2.186802 2.340149,-3.705521 4.526951,-3.392159 z m 19.296667,10.291282 c 0.311478,2.187073 -1.208988,4.212544 -3.396061,4.524021 -2.187069,0.311478 -4.212543,-1.208992 -4.524021,-3.396061 z M 43.999996,32.345558 c 0,-9.320976 -7.83683,-20.074074 -19.999998,-20.074074 v -8 c 17.375292,0 27.999998,15.172829 27.999998,28.074074 z M 23.999998,12.271484 C 11.83683,12.271484 4,23.024582 4,32.345558 H -4 C -4,19.444313 6.624709,4.271484 23.999998,4.271484 Z M 4,32.345558 c 0,9.320976 7.83683,20.074074 19.999998,20.074074 v 8 C 6.624709,60.419632 -4,45.246803 -4,32.345558 Z m 19.999998,20.074074 c 7.604799,0 13.851412,-4.623314 16.976339,-9.32518 l 6.662705,4.428139 C 43.379356,53.931839 34.856735,60.419632 23.999998,60.419632 Z m 7.952011,-12.922516 12.923079,1.851853 -1.134793,7.919105 -12.923078,-1.851852 z m 16.315722,5.247425 1.846153,12.962963 -7.920082,1.12796 -1.846153,-12.962963 z" /></g></g></svg>

<?xml version="1.0" encoding="UTF-8" standalone="no"?>
<!DOCTYPE svg PUBLIC "-//W3C//DTD SVG 1.1//EN" "http://www.w3.org/Graphics/SVG/1.1/DTD/svg11.dtd">
<svg xmlns="http://www.w3.org/2000/svg" xmlns:xlink="http://www.w3.org/1999/xlink" version="1.1" width="56pt" height="58.00049pt" viewBox="0 0 56 58.00049">
<g enable-background="new">
<path transform="matrix(1,0,0,-1,4,62.271974)" d="M 51.999998 32.34556 C 51.999998 34.554697 50.209138 36.34556 47.999998 36.34556 C 45.79086 36.34556 43.999998 34.554697 43.999998 32.34556 L 51.999998 32.34556 Z M 44.30769 45.30852 L 44.875089 41.34897 C 46.634889 41.601144 48.017076 42.984529 48.26773 44.74454 L 44.30769 45.30852 Z M 30.817217 47.41622 C 28.630415 47.10286 27.111695 45.076074 27.425059 42.889276 C 27.738425 40.702474 29.765208 39.183755 31.95201 39.497117 L 30.817217 47.41622 Z M 50.113885 57.707506 C 50.42536 59.894578 48.904897 61.920049 46.717824 62.231527 C 44.530755 62.543004 42.50528 61.022535 42.1938 58.835466 L 50.113885 57.707506 Z M 43.999998 32.34556 C 43.999998 23.024582 36.163167 12.271484 23.999999 12.271484 L 23.999999 4.271484 C 41.37529 4.271484 51.999998 19.444314 51.999998 32.34556 L 43.999998 32.34556 Z M 23.999999 12.271484 C 11.83683 12.271484 4 23.024582 4 32.34556 L -4 32.34556 C -4 19.444314 6.624709 4.271484 23.999999 4.271484 L 23.999999 12.271484 Z M 4 32.34556 C 4 41.666536 11.83683 52.419633 23.999999 52.419633 L 23.999999 60.419633 C 6.624709 60.419633 -4 45.246805 -4 32.34556 L 4 32.34556 Z M 23.999999 52.419633 C 31.604798 52.419633 37.85141 47.796319 40.976339 43.09445 L 47.63904 47.52259 C 43.379358 53.93184 34.856737 60.419633 23.999999 60.419633 L 23.999999 52.419633 Z M 31.95201 39.497117 L 44.875089 41.34897 L 43.740297 49.268075 L 30.817217 47.41622 L 31.95201 39.497117 Z M 48.26773 44.74454 L 50.113885 57.707506 L 42.1938 58.835466 L 40.34765 45.8725 L 48.26773 44.74454 Z " fill="#245080"/>
</g>
</svg>
